X: 20679
T: John Watt Henry's
R: reel
M: 4/4
K: Dmajor
A3d B2 AF|DFAF ED D2|A3 d B3 c|dBAF EFDF|
A3F B2 AF|DFAF ED D2|A3d BABc|dBAF EFAc||
d2 fd edfe|dfed dBAB|d2 fd edfe|dBAF EFAc|
d2 fd edfe|dfed dBAB|f3e dBAB|dBAF ED D2||

